img/calendar.svg

<svg width="16" height="17" viewBox="0 0 16 17" fill="none" xmlns="http://www.w3.org/2000/svg">
<g opacity="0.4">
<path fill-rule="evenodd" clip-rule="evenodd" d="M13.7777 7.10352H1.89502C1.61902 7.10352 1.39502 6.87952 1.39502 6.60352C1.39502 6.32752 1.61902 6.10352 1.89502 6.10352H13.7777C14.0537 6.10352 14.2777 6.32752 14.2777 6.60352C14.2777 6.87952 14.0537 7.10352 13.7777 7.10352Z" fill="#222222"/>
<path fill-rule="evenodd" clip-rule="evenodd" d="M10.801 9.70703C10.525 9.70703 10.2983 9.48303 10.2983 9.20703C10.2983 8.93103 10.519 8.70703 10.795 8.70703H10.801C11.077 8.70703 11.301 8.93103 11.301 9.20703C11.301 9.48303 11.077 9.70703 10.801 9.70703Z" fill="#222222"/>
<path fill-rule="evenodd" clip-rule="evenodd" d="M7.84251 9.70703C7.56651 9.70703 7.33984 9.48303 7.33984 9.20703C7.33984 8.93103 7.56051 8.70703 7.83651 8.70703H7.84251C8.11851 8.70703 8.34251 8.93103 8.34251 9.20703C8.34251 9.48303 8.11851 9.70703 7.84251 9.70703Z" fill="#222222"/>
<path fill-rule="evenodd" clip-rule="evenodd" d="M4.87833 9.70703C4.60233 9.70703 4.375 9.48303 4.375 9.20703C4.375 8.93103 4.59633 8.70703 4.87233 8.70703H4.87833C5.15433 8.70703 5.37833 8.93103 5.37833 9.20703C5.37833 9.48303 5.15433 9.70703 4.87833 9.70703Z" fill="#222222"/>
<path fill-rule="evenodd" clip-rule="evenodd" d="M10.801 12.2983C10.525 12.2983 10.2983 12.0743 10.2983 11.7983C10.2983 11.5223 10.519 11.2983 10.795 11.2983H10.801C11.077 11.2983 11.301 11.5223 11.301 11.7983C11.301 12.0743 11.077 12.2983 10.801 12.2983Z" fill="#222222"/>
<path fill-rule="evenodd" clip-rule="evenodd" d="M7.84251 12.2983C7.56651 12.2983 7.33984 12.0743 7.33984 11.7983C7.33984 11.5223 7.56051 11.2983 7.83651 11.2983H7.84251C8.11851 11.2983 8.34251 11.5223 8.34251 11.7983C8.34251 12.0743 8.11851 12.2983 7.84251 12.2983Z" fill="#222222"/>
<path fill-rule="evenodd" clip-rule="evenodd" d="M4.87833 12.2983C4.60233 12.2983 4.375 12.0743 4.375 11.7983C4.375 11.5223 4.59633 11.2983 4.87233 11.2983H4.87833C5.15433 11.2983 5.37833 11.5223 5.37833 11.7983C5.37833 12.0743 5.15433 12.2983 4.87833 12.2983Z" fill="#222222"/>
<path fill-rule="evenodd" clip-rule="evenodd" d="M10.5293 4.36148C10.2533 4.36148 10.0293 4.13748 10.0293 3.86148V1.66748C10.0293 1.39148 10.2533 1.16748 10.5293 1.16748C10.8053 1.16748 11.0293 1.39148 11.0293 1.66748V3.86148C11.0293 4.13748 10.8053 4.36148 10.5293 4.36148Z" fill="#222222"/>
<path fill-rule="evenodd" clip-rule="evenodd" d="M5.14355 4.36148C4.86755 4.36148 4.64355 4.13748 4.64355 3.86148V1.66748C4.64355 1.39148 4.86755 1.16748 5.14355 1.16748C5.41955 1.16748 5.64355 1.39148 5.64355 1.66748V3.86148C5.64355 4.13748 5.41955 4.36148 5.14355 4.36148Z" fill="#222222"/>
<mask id="mask0_2436_18200" style="mask-type:alpha" maskUnits="userSpaceOnUse" x="1" y="2" width="14" height="14">
<path fill-rule="evenodd" clip-rule="evenodd" d="M1.3335 2.22021H14.3335V15.5008H1.3335V2.22021Z" fill="white"/>
</mask>
<g mask="url(#mask0_2436_18200)">
<path fill-rule="evenodd" clip-rule="evenodd" d="M5.01416 3.22022C3.2855 3.22022 2.3335 4.14222 2.3335 5.81622V11.8489C2.3335 13.5595 3.2855 14.5009 5.01416 14.5009H10.6528C12.3815 14.5009 13.3335 13.5769 13.3335 11.8995V5.81622C13.3362 4.99288 13.1148 4.35288 12.6755 3.91288C12.2235 3.45955 11.5268 3.22022 10.6588 3.22022H5.01416ZM10.6528 15.5009H5.01416C2.74416 15.5009 1.3335 14.1015 1.3335 11.8489V5.81622C1.3335 3.59755 2.74416 2.22021 5.01416 2.22021H10.6588C11.7982 2.22021 12.7402 2.56155 13.3835 3.20621C14.0082 3.83355 14.3368 4.73555 14.3335 5.81755V11.8995C14.3335 14.1209 12.9228 15.5009 10.6528 15.5009Z" fill="#222222"/>
</g>
</g>
</svg>

<svg width="16" height="17" viewBox="0 0 16 17" fill="none" xmlns="http://www.w3.org/2000/svg"><g opacity=".4"><path fill-rule="evenodd" clip-rule="evenodd" d="M13.778 7.104H1.895a.5.5 0 0 1 0-1h11.883a.5.5 0 0 1 0 1zm-2.977 2.603a.502.502 0 0 1-.503-.5c0-.276.221-.5.497-.5h.006a.5.5 0 0 1 0 1zm-2.958 0a.502.502 0 0 1-.503-.5c0-.276.22-.5.497-.5h.006a.5.5 0 0 1 0 1zm-2.965 0a.503.503 0 0 1-.503-.5c0-.276.221-.5.497-.5h.006a.5.5 0 0 1 0 1zm5.923 2.591a.502.502 0 0 1-.503-.5c0-.276.221-.5.497-.5h.006a.5.5 0 0 1 0 1zm-2.958 0a.502.502 0 0 1-.503-.5c0-.276.22-.5.497-.5h.006a.5.5 0 0 1 0 1zm-2.965 0a.503.503 0 0 1-.503-.5c0-.276.221-.5.497-.5h.006a.5.5 0 0 1 0 1zm5.652-7.937a.5.5 0 0 1-.5-.5V1.667a.5.5 0 0 1 1 0v2.194a.5.5 0 0 1-.5.5zm-5.386 0a.5.5 0 0 1-.5-.5V1.667a.5.5 0 0 1 1 0v2.194a.5.5 0 0 1-.5.5z" fill="#222"/><mask id="a" style="mask-type:alpha" maskUnits="userSpaceOnUse" x="1" y="2" width="14" height="14"><path fill-rule="evenodd" clip-rule="evenodd" d="M1.333 2.22h13V15.5h-13V2.22z" fill="#fff"/></mask><g mask="url(#a)"><path fill-rule="evenodd" clip-rule="evenodd" d="M5.014 3.22c-1.729 0-2.68.922-2.68 2.596v6.033c0 1.71.951 2.652 2.68 2.652h5.639c1.729 0 2.68-.924 2.68-2.601V5.816c.003-.823-.218-1.463-.658-1.903-.452-.453-1.148-.693-2.016-.693H5.014zm5.639 12.28H5.014c-2.27 0-3.68-1.399-3.68-3.651V5.816c0-2.218 1.41-3.596 3.68-3.596h5.645c1.14 0 2.081.342 2.724.986.625.628.954 1.53.95 2.612V11.9c0 2.22-1.41 3.6-3.68 3.6z" fill="#222"/></g></g></svg>
